X:1
T:Title
L:1/8
Q:1/4=100
M:4/4
K:Bb
V:1 treble nm="Grand Piano"
V:1
 D>E F2 F4 | D>E F2 F4 | G>D E6 | E>F G2 G4 | E>F G2 G4 | A>B F6 | F>B d2 d4 | c>B c2 c4 | B>A G6 | %9
w: ????~???? * * *|||||||||
 c>d c2 B4 | B>A G2 F4 | G>A B6 | B>A G2 G4 | ^F>G A2 A4 | G>A B6 | B>A G2 G4 | ^F>G A2 A4 | %17
w: ||||||||
 G>A B6 | d>_d =d2 G4 | c>=B c2 e4 | d>c B6 |] %21
w: ||||

